X:6023
T:Gan Ainm
R:reel
S:
H:
N:
D:Milltown 1999 
Z:Adrian Scahill
M:4/4
L:1/8
K:F
G3A B2GA|B2AG FDA,B,|CFFE FdcA|FCC2 A,B,CF|\
DGGA B2AG|_E2 (3EEE DGGA|B3c d2cA|B2AF DGG2:||\
g3d Bcdf|g3d BcdB|cffe fgag|fcc2 ABcf|\
g3d Bcdf|g2ag fddc|B3B A2 (3ccA|BGAF DGG2:||


